X:1
T:Take My Hand
T:Take My Hand
T:N. A. Bouse
T:Jessie H. Berry, 1880
T:Public Domain Courtesy of the Cyber Hymnal™
T:Public Domain Courtesy of the Cyber Hymnal™
C:N. A. Bouse
Z:Public Domain
Z:Courtesy of the Cyber Hymnal™
%%score ( 1 2 ) ( 3 4 )
L:1/8
Q:1/4=98
M:4/4
K:A
V:1 treble 
V:2 treble 
V:3 bass 
V:4 bass 
V:1
 [A,C]>[B,D] | [CE]2 [EA]2 ([GB][FA]) ([EG][DF]) | [CE]6 z2 | [EG]2 E2 [EB]2 (FE) | %4
w: 1.~Sav- ior,|take my hand * in *|Thine,|Take my hand, oh, *|
w: 2.~Sav- ior,|hold my hand * in *|Thine,|Hold my hand, oh, *|
w: 3.~Sav- ior,|keep my hand * in *|Thine,|Keep my hand, oh, *|
 [CA]2 [CE]2 [Ec]2 ([A,C]>[CE]) | [CE][CE][EA][EA] ([GB][FA]) ([EG][DF]) | [CE]6 [EA]2 | %7
w: take my hand; For *|thor- ny is the way * and *|drear, O’er|
w: hold my hand; For *|by the temp- ter would * I *|fail, Shouldst|
w: keep my hand; Then *|I shall safe- ly pass * the *|way, Though|
 [EG]3 [EG] [^DB][DA][DF][DG] | E6 ([A,C]>[B,D]) | [CE][CE][EA][EA] ([GB][FA]) ([EG][DF]) | %10
w: which my wear- y feet have|come; Nor *|do I see my path- * way *|
w: Thou with- draw Thy hand from|me; The *|dan- gers great ap- pall * my *|
w: dark and drear- y it may|be, Un- *|til I reach that bless- * èd *|
 [CE]6 [EA]2 | [EA]3 [EG] [Ec][DB][CA][DG] | [CA]6 ||[M:3/4]"^Refrain" [A,C]>[B,D] | %14
w: clear, The|path that I would fol- low|home.||
w: soul; I|cling, I cling and hold to|Thee.|Sav- ior,|
w: day When|I shall rest in Heav’n with|Thee.||
 [CE]>[^B,^D] [CE]2 (FG) | [CA]>[DB] [Ec]2 [Ec][Ec] | [EB]3 [EG] [^DF][DB] | E4 [A,C]>[B,D] | %18
w: ||||
w: take my hand, oh, *|take my hand, Hear my|plea, O Lord, I|pray; Sav- ior,|
w: ||||
 [CE]>[^B,^D] [CE]2 (FG) | [DA]>[DF] !fermata![Fd]2 [DF][DF] | %20
w: ||
w: take my hand, oh, *|take my hand, In- to|
w: ||
 [CE]3 [CE] ([CE]/!fermata![Ec]/)[DB] | !fermata![CA]4 |] %22
w: ||
w: Thine, O Lord, * to-|day.|
w: ||
V:2
 x2 | x8 | x8 | x2 E2 D2 x2 | x8 | x8 | x8 | x8 | E6 x2 | x8 | x8 | x8 | x6 ||[M:3/4] x2 | x4 =D2 | %15
 x6 | x6 | E4 x2 | x4 =D2 | x6 | x6 | x4 |] %22
V:3
 [A,,A,]>[A,,A,] | [A,,A,]2 [A,,C]2 [D,A,]2 [D,A,]2 | [A,,A,]6 z2 | %3
 [E,B,]2 [E,G,]2 [E,G,]2 [E,G,]2 | [A,,A,]2 [A,,A,]2 [A,,A,]2 [A,,A,]2 | %5
 [A,,A,][A,,A,][A,,C][A,,C] [D,A,]2 [D,A,]2 | [A,,A,]6 [A,,C]2 | %7
 [B,,B,]3 [B,,B,] [B,,B,][B,,B,][B,,B,][B,,A,] | [E,G,]6 [A,,A,]2 | %9
 [A,,A,][A,,A,][A,,C][A,,C] [D,A,]2 [D,A,]2 | [A,,A,]6 [C,A,]2 | %11
 [E,C]3 [E,B,] [E,A,][E,G,][E,A,][E,B,] | !fermata![A,,A,]6 ||[M:3/4] [A,,A,]>[A,,A,] | %14
 [A,,A,]>[A,,A,] [A,,A,]2 [A,,A,]2 | [A,,A,]>[A,,A,] [A,,A,]2 [A,,A,][A,,A,] | %16
 [B,,G,]3 [B,,B,] [B,,B,][B,,A,] | G,4 [C,A,]>[B,,G,] | [A,,A,]>[A,,A,] [A,,A,]2 [A,,A,]2 | %19
 [D,F,]>[D,A,] !fermata![D,A,]2 [D,A,][D,A,] | [E,A,]3 [E,A,] !fermata![E,A,]E, | %21
 !fermata![A,,E,]4 |] %22
V:4
 x2 | x8 | x8 | x8 | x8 | x8 | x8 | x8 | x8 | x8 | x8 | x8 | x6 ||[M:3/4] x2 | x6 | x6 | x6 | %17
 E,2 D,2 x2 | x6 | x6 | x5 E, | x4 |] %22

